lib/flags/l/VI.svg

<svg xmlns="http://www.w3.org/2000/svg" fill="none" viewBox="0 0 32 24"><mask id="VI_svg__a" width="32" height="24" x="0" y="0" mask-type="alpha" maskUnits="userSpaceOnUse"><path fill="#fff" d="M0 0H32V24H0z"/></mask><g mask="url(#VI_svg__a)"><path fill="#F7FCFF" fill-rule="evenodd" d="M0 0V24H32V0H0Z" clip-rule="evenodd"/><mask id="VI_svg__b" width="32" height="24" x="0" y="0" mask-type="alpha" maskUnits="userSpaceOnUse"><path fill="#fff" fill-rule="evenodd" d="M0 0V24H32V0H0Z" clip-rule="evenodd"/></mask><g mask="url(#VI_svg__b)"><path fill="#E8AA00" fill-rule="evenodd" d="M17.6025 8.21483C17.8444 8.35253 17.9896 8.70507 17.9896 8.70507H13.9016L14.1838 8.21483C14.1838 8.21483 13.9016 8.08673 14.0435 8.08673C14.1855 8.08673 14.5904 7.51861 14.5904 7.51861H14.4215C14.4215 7.51861 14.3346 7.37728 14.5904 7.37728C14.8463 7.37728 15.0507 6.46282 15.0507 6.46282C15.0507 6.46282 15.2185 6.03497 14.8076 5.92699C14.3967 5.81901 13.9016 6.28467 13.9016 6.28467C13.9016 6.28467 14.0224 5.53967 14.1838 5.3783C14.2588 5.30331 14.3988 5.29139 14.5272 5.28046C14.6751 5.26786 14.8076 5.25658 14.8076 5.15175C14.8076 4.9559 15.2887 4.80322 16.0751 4.80322C16.8615 4.80322 17.1472 5.74248 17.1472 5.92699C17.1472 6.1115 17.4162 7.0922 17.4162 7.0922C17.4162 7.0922 17.1472 7.0922 17.1472 7.21871C17.1472 7.34522 17.9896 7.89194 17.9896 7.89194C17.9896 7.89194 17.3605 8.07713 17.6025 8.21483ZM2.77717 4.86953C3.09081 4.73495 6.27811 5.68474 8.66568 6.39622L8.66571 6.39622L8.66573 6.39623L8.66574 6.39623C10.0387 6.80536 11.1472 7.13569 11.2927 7.13569C11.6913 7.13569 12.4412 8.10079 12.0662 8.50701C11.6913 8.91323 11.5645 9.15062 11.8153 9.15062C12.0662 9.15062 13.3316 8.82223 13.3316 8.82223V12.594C13.3316 12.594 12.1189 12.8818 11.8153 12.594C11.6683 12.4546 11.4442 12.4462 11.252 12.4391C11.0473 12.4314 10.879 12.4251 10.879 12.2634C10.879 11.9497 10.1802 11.9004 10.1802 11.9004C10.1802 11.9004 9.53357 11.6872 9.53357 11.4865C9.53357 11.2859 9.11039 10.7188 9.11039 10.7188C9.11039 10.7188 7.49761 9.80571 6.12636 8.80372C5.84933 8.60129 5.57556 8.41058 5.31343 8.22798C4.27806 7.50675 3.42455 6.91219 3.27117 6.22299C2.555 5.5138 2.28317 5.0815 2.77717 4.86953ZM12.8437 12.8319C12.8437 12.8319 12.3007 13.206 11.7 14.2079C11.4045 14.7008 11.3807 15.1349 11.3635 15.4489C11.3457 15.7731 11.335 15.9692 11.0392 15.9692C10.6939 15.9692 10.4433 16.0438 10.2394 16.1046C10.0995 16.1464 9.98156 16.1815 9.87 16.1815C9.59586 16.1815 9.06949 17.2164 9.33268 17.4558C9.59586 17.6953 10.6986 18.077 10.6986 17.4558C10.6986 16.8347 10.9952 16.4818 11.5341 16.4818C12.073 16.4818 13.0364 16.1249 13.0364 15.342C13.0364 14.559 14.0867 14.6149 14.0867 14.6149L12.8437 12.8319ZM23.5612 6.39622C25.9488 5.68474 29.1361 4.73495 29.4498 4.86953C29.9438 5.0815 29.6719 5.5138 28.9558 6.22299C28.8024 6.91219 27.9489 7.50674 26.9135 8.22798C26.6514 8.41058 26.3776 8.60129 26.1006 8.80372C24.7293 9.80571 23.1165 10.7188 23.1165 10.7188C23.1165 10.7188 22.6934 11.2859 22.6934 11.4865C22.6934 11.6872 22.0467 11.9004 22.0467 11.9004C22.0467 11.9004 21.3479 11.9497 21.3479 12.2634C21.3479 12.4251 21.1796 12.4314 20.9749 12.4391C20.7828 12.4462 20.5586 12.4546 20.4116 12.594C20.108 12.8818 18.8953 12.594 18.8953 12.594V8.82223C18.8953 8.82223 20.1607 9.15062 20.4116 9.15062C20.6625 9.15062 20.5356 8.91323 20.1607 8.50701C19.7858 8.10079 20.5356 7.13569 20.9342 7.13569C21.0797 7.13569 22.1881 6.80539 23.561 6.39629L23.5611 6.39627L23.5612 6.39622L23.5612 6.39622ZM19.3832 12.8319C19.3832 12.8319 19.9262 13.206 20.5269 14.2079C20.8225 14.7008 20.8463 15.1349 20.8635 15.4489C20.8812 15.7731 20.892 15.9692 21.1878 15.9692C21.5331 15.9692 21.7836 16.0438 21.9875 16.1046C22.1274 16.1464 22.2454 16.1815 22.3569 16.1815C22.6311 16.1815 23.1574 17.2164 22.8942 17.4558C22.6311 17.6953 21.5283 18.077 21.5283 17.4558C21.5283 16.8347 21.2317 16.4818 20.6928 16.4818C20.1539 16.4818 19.1906 16.1249 19.1906 15.342C19.1906 14.559 18.1402 14.6149 18.1402 14.6149L19.3832 12.8319ZM13.5409 15.4423C13.5409 15.0974 14.1504 14.8373 14.1504 14.8373L15.9851 14.0631C15.9851 14.0631 15.9945 14.2378 16.0086 14.5279C16.0226 14.2378 16.0321 14.0631 16.0321 14.0631L17.8667 14.8373C17.8667 14.8373 18.4762 15.0974 18.4762 15.4423C18.4762 15.6152 18.7355 15.9208 18.9942 16.2258L18.9942 16.2258C19.2518 16.5294 19.5088 16.8324 19.5088 17.003C19.5088 17.3039 18.8127 17.9806 18.3924 18.3892C18.3351 18.445 18.2829 18.4957 18.2383 18.5398C18.142 18.6351 18.038 18.7531 17.9299 18.8756C17.6208 19.2261 17.2786 19.6141 16.9916 19.6141C16.7898 19.6141 16.6267 19.7545 16.4704 19.8891C16.3267 20.0128 16.1888 20.1315 16.0321 20.1315C16.0238 20.1315 16.016 20.1276 16.0086 20.1202C16.0012 20.1276 15.9933 20.1315 15.9851 20.1315C15.8283 20.1315 15.6905 20.0128 15.5468 19.8891C15.3905 19.7545 15.2274 19.6141 15.0255 19.6141C14.7385 19.6141 14.3964 19.2261 14.0873 18.8756C13.9792 18.7531 13.8751 18.6351 13.7789 18.5398C13.7343 18.4957 13.6821 18.445 13.6248 18.3893L13.6248 18.3892C13.2045 17.9806 12.5084 17.3039 12.5084 17.003C12.5084 16.8324 12.7654 16.5294 13.023 16.2258C13.2817 15.9208 13.5409 15.6152 13.5409 15.4423Z" clip-rule="evenodd"/><path fill="#46A000" fill-rule="evenodd" d="M7.01027 10.6732C7.05026 11.1358 7.1818 11.4086 7.1818 11.4086C7.1818 11.4086 7.41332 11.7728 7.54462 11.7771C7.61206 11.9447 7.68554 12.1165 7.76409 12.2914C8.12446 13.2515 8.61549 14.5131 9.11838 15.6621C9.0861 15.6376 9.03945 15.6107 8.97569 15.5809C8.55501 15.3842 8.25298 15.3617 8.25298 15.3617C8.25298 15.3617 7.68911 15.3858 7.74733 15.5458C7.80555 15.7057 8.50465 16.0532 8.78851 15.9499C8.82014 15.9383 8.85228 15.9273 8.88383 15.9164C9.0144 15.8713 9.13491 15.8297 9.1683 15.7757C9.23514 15.9272 9.30213 16.0765 9.36897 16.2226C8.94934 16.0267 8.64828 16.0043 8.64828 16.0043C8.64828 16.0043 8.0844 16.0284 8.14262 16.1884C8.20084 16.3483 8.89994 16.6957 9.1838 16.5924C9.21544 16.5809 9.24758 16.5698 9.27913 16.5589C9.35775 16.5318 9.43272 16.5059 9.48722 16.4779C9.99394 17.5582 10.4831 18.4207 10.8323 18.6385H11.5368C11.5368 18.6385 10.9279 17.7779 10.1605 16.5731C10.3917 16.409 10.7139 16.0466 10.7139 15.8186C10.7139 15.7849 10.7145 15.751 10.715 15.7176C10.7195 15.4516 10.7233 15.2251 10.4312 15.5165C10.1025 15.8446 9.97807 16.1207 9.97807 16.1207C9.97807 16.1207 9.96311 16.168 9.94649 16.2346C9.88482 16.1363 9.82244 16.0362 9.75956 15.9345C9.99113 15.7724 10.3186 15.4059 10.3186 15.176C10.3186 15.1424 10.3192 15.1084 10.3197 15.075C10.3242 14.809 10.328 14.5825 10.0359 14.874C9.7072 15.202 9.58278 15.4781 9.58278 15.4781C9.58278 15.4781 9.56751 15.5264 9.55069 15.594C9.46192 15.4481 9.37265 15.2997 9.28343 15.1494C9.5097 15.0299 9.92329 14.599 9.92329 14.3407C9.92329 14.307 9.92386 14.273 9.92443 14.2397C9.9289 13.9737 9.93272 13.7472 9.64063 14.0386C9.31191 14.3667 9.18748 14.6428 9.18748 14.6428C9.18748 14.6428 9.15028 14.7604 9.12806 14.8856C9.01133 14.6859 8.89528 14.4837 8.7812 14.2805C8.7847 14.281 8.78836 14.2813 8.79219 14.2813C8.96241 14.2813 9.528 13.7432 9.528 13.4411C9.528 13.4074 9.52857 13.3734 9.52913 13.3401C9.53361 13.0741 9.53742 12.8476 9.24534 13.139C8.91661 13.4671 8.79219 13.7432 8.79219 13.7432C8.79219 13.7432 8.70848 14.0078 8.71717 14.1659C8.55981 13.8832 8.40671 13.599 8.26136 13.3173L8.26513 13.3174C8.43535 13.3174 9.00094 12.7793 9.00094 12.4773C9.00094 12.4436 9.00151 12.4096 9.00207 12.3762C9.00655 12.1102 9.01037 11.8837 8.71828 12.1752C8.38955 12.5032 8.26513 12.7793 8.26513 12.7793C8.26513 12.7793 8.18977 13.0176 8.18948 13.177C8.03673 12.8765 7.89351 12.5797 7.76409 12.2914C7.69456 12.1062 7.62989 11.9322 7.57094 11.7723C7.57933 11.7687 7.58706 11.7628 7.59402 11.7545C7.70343 11.6241 7.65477 10.845 7.42336 10.6508C7.39757 10.6292 7.3719 10.6069 7.3467 10.585C7.14579 10.4106 6.97474 10.2621 7.01027 10.6732ZM7.7924 11.8568C7.7924 11.8568 7.81488 11.5547 8.01159 11.1341C8.18637 10.7603 8.26025 10.9744 8.34703 11.2259C8.35792 11.2575 8.369 11.2896 8.38052 11.3212C8.48384 11.6051 8.1364 12.3042 7.97645 12.3624C7.81649 12.4206 7.7924 11.8568 7.7924 11.8568ZM8.58039 14.7456C8.15972 14.5489 7.85769 14.5264 7.85769 14.5264C7.85769 14.5264 7.29381 14.5505 7.35203 14.7104C7.41025 14.8704 8.10935 15.2178 8.39321 15.1145C8.42485 15.103 8.45699 15.0919 8.48854 15.081C8.74005 14.9943 8.95419 14.9204 8.58039 14.7456ZM7.4624 13.6268C7.4624 13.6268 7.76442 13.6493 8.1851 13.846C8.55889 14.0208 8.34475 14.0947 8.09324 14.1814C8.06169 14.1923 8.02956 14.2034 7.99792 14.2149C7.71406 14.3182 7.01496 13.9708 6.95674 13.8108C6.89852 13.6509 7.4624 13.6268 7.4624 13.6268ZM7.85569 12.9464C7.43501 12.7497 7.13298 12.7272 7.13298 12.7272C7.13298 12.7272 6.56911 12.7513 6.62733 12.9112C6.68555 13.0712 7.38465 13.4186 7.66851 13.3153C7.7001 13.3038 7.73218 13.2928 7.76369 13.2819L7.76379 13.2818L7.76383 13.2818C8.01534 13.1951 8.22948 13.1212 7.85569 12.9464ZM6.975 11.6448C6.975 11.6448 7.25112 11.7692 7.57915 12.0979C7.87062 12.39 7.64413 12.3862 7.37811 12.3817H7.37811C7.34474 12.3811 7.31075 12.3806 7.27708 12.3806C6.975 12.3806 6.43689 11.815 6.43689 11.6448C6.43689 11.4745 6.975 11.6448 6.975 11.6448Z" clip-rule="evenodd"/><path fill="#0093E1" fill-rule="evenodd" d="M28.6917 10.3386H26.5544C26.5544 10.3386 27.0075 10.3386 27.0572 10.7763C27.0572 10.7763 27.0677 14.4703 27.0572 14.7605C27.0468 15.0507 26.5544 15.1495 26.5544 15.1495C26.5544 15.1495 29.1472 15.1574 28.6917 15.1495C28.2362 15.1415 28.1356 14.7605 28.1356 14.7605V10.7763C28.1356 10.4391 28.6917 10.3386 28.6917 10.3386ZM4.56534 14.8533C4.32341 14.2287 2.82971 10.4042 2.82971 10.4042H4.30845C4.05156 10.4042 3.95618 10.7312 3.95618 10.7312L4.99195 13.6844C4.99195 13.6844 5.99356 11.2733 5.99356 10.8457C5.99356 10.4181 5.57311 10.4042 5.57311 10.4042H7.50096L7.03521 10.5597C7.03521 10.5597 5.49263 14.0962 5.49263 14.8533C5.41913 15.0211 6.20285 15.1327 6.20285 15.1327H4.13265L4.56534 14.8533ZM22.2666 13.4567L23.4123 11.3458L23.4459 13.6944L23.091 13.5793L22.8394 15.1476L24.1064 12.718L23.6845 12.5595L25.2528 10.8618L24.7187 13.1563L24.4149 12.8887L22.6183 16.241L24.6236 13.9433L24.237 13.7502L26.2173 12.4537L25.3552 14.5665L24.8742 14.2203L22.8394 16.782L21.9954 16.4574L22.8394 13.4567H22.2666ZM21.605 17.46H20.9715V17.9419H20.4728L19.0604 19.5803H19.84L20.1108 20.5029L20.4728 20.1773V20.5029L21.1809 20.1773L21.8577 20.7634L22.3629 18.5104L22.0229 18.2608L22.1975 18.1081L22.0229 17.46H21.605Z" clip-rule="evenodd"/><path fill="#F7FCFF" fill-rule="evenodd" d="M12.3435 8.01294C12.3435 8.01294 13.2741 8.65551 14.2047 8.65551C15.1353 8.65551 16.0659 8.01294 16.0659 8.01294C16.0659 8.01294 16.9965 8.65551 17.9271 8.65551C18.8576 8.65551 19.7882 8.01294 19.7882 8.01294V10.9138C19.7882 13.9132 16.0659 16.2378 16.0659 16.2378C16.0659 16.2378 12.1633 14.1034 12.3435 10.8782V8.01294Z" clip-rule="evenodd"/><mask id="VI_svg__c" width="8" height="9" x="12" y="8" mask-type="alpha" maskUnits="userSpaceOnUse"><path fill="#fff" fill-rule="evenodd" d="M12.3435 8.01294C12.3435 8.01294 13.2741 8.65551 14.2047 8.65551C15.1353 8.65551 16.0659 8.01294 16.0659 8.01294C16.0659 8.01294 16.9965 8.65551 17.9271 8.65551C18.8576 8.65551 19.7882 8.01294 19.7882 8.01294V10.9138C19.7882 13.9132 16.0659 16.2378 16.0659 16.2378C16.0659 16.2378 12.1633 14.1034 12.3435 10.8782V8.01294Z" clip-rule="evenodd"/></mask><g fill-rule="evenodd" clip-rule="evenodd" mask="url(#VI_svg__c)"><path fill="#2E42A5" d="M12.08 7.82007H19.92V10.8401H12.08V7.82007Z"/><path fill="#AF0100" d="M13.5953 10.8403H12.9365V16.9447H13.5953V10.8403ZM14.7153 10.8403H14.0565V16.9447H14.7153V10.8403ZM15.1765 10.8403H15.8353V16.9447H15.1765V10.8403ZM16.9553 10.8403H16.2965V16.9447H16.9553V10.8403ZM17.4165 10.8403H18.0753V16.9447H17.4165V10.8403ZM19.1953 10.8403H18.5365V16.9447H19.1953V10.8403Z"/></g></g></g></svg>

<svg xmlns="http://www.w3.org/2000/svg" fill="none" viewBox="0 0 32 24"><g fill-rule="evenodd" clip-rule="evenodd" mask="url(#VI_svg__VI_-_Virgin_Islands_(U_S_)"><path fill="#F7FCFF" d="M0 0v24h32V0H0z"/><g mask="url(#VI_svg__VI_-_Virgin_Islands_(U_S_)"><path fill="#E8AA00" d="M17.602 8.215c.242.138.388.49.388.49h-4.088l.282-.49s-.282-.128-.14-.128c.141 0 .546-.568.546-.568h-.168s-.087-.142.168-.142c.256 0 .46-.914.46-.914s.168-.428-.242-.536c-.411-.108-.906.358-.906.358s.12-.745.282-.907c.075-.075.215-.087.343-.098.148-.012.28-.023.28-.128 0-.196.482-.349 1.268-.349.787 0 1.072.94 1.072 1.124 0 .185.27 1.165.27 1.165s-.27 0-.27.127c0 .126.843.673.843.673s-.63.185-.387.323zM2.777 4.87c.314-.135 3.501.815 5.889 1.526 1.373.41 2.481.74 2.627.74.398 0 1.148.965.773 1.371-.375.406-.502.644-.25.644.25 0 1.516-.329 1.516-.329v3.772s-1.213.288-1.517 0c-.147-.14-.37-.148-.563-.155-.205-.008-.373-.014-.373-.176 0-.313-.699-.363-.699-.363s-.646-.213-.646-.414c0-.2-.424-.767-.424-.767s-1.612-.913-2.984-1.915c-.277-.203-.55-.393-.813-.576-1.035-.721-1.888-1.316-2.042-2.005-.716-.71-.988-1.141-.494-1.353zm10.067 7.962s-.543.374-1.144 1.376c-.295.493-.32.927-.336 1.24-.018.325-.029.521-.325.521a2.6 2.6 0 00-.8.136 1.35 1.35 0 01-.369.076c-.274 0-.8 1.035-.537 1.275s1.366.621 1.366 0 .296-.974.835-.974c.539 0 1.502-.357 1.502-1.14 0-.783 1.05-.727 1.05-.727l-1.242-1.783zM23.56 6.396c2.388-.711 5.575-1.661 5.889-1.526.494.212.222.644-.494 1.353-.154.69-1.007 1.284-2.043 2.005-.262.183-.535.373-.812.576-1.372 1.002-2.985 1.915-2.985 1.915s-.423.567-.423.768c0 .2-.646.413-.646.413s-.7.05-.7.363c0 .162-.167.168-.372.176-.192.007-.416.016-.563.155-.304.288-1.517 0-1.517 0V8.822s1.266.329 1.517.329c.25 0 .124-.238-.251-.644s.375-1.371.773-1.371c.146 0 1.254-.33 2.627-.74zm-4.178 6.436s.543.374 1.144 1.376c.296.493.32.927.336 1.24.018.325.029.521.325.521a2.6 2.6 0 01.8.136c.14.041.257.076.369.076.274 0 .8 1.035.537 1.275s-1.366.621-1.366 0-.296-.974-.835-.974c-.54 0-1.502-.357-1.502-1.14 0-.783-1.05-.727-1.05-.727l1.242-1.783zm-5.842 2.61c0-.345.61-.605.61-.605l1.834-.774.024.465.023-.465 1.835.774s.61.26.61.605c0 .173.258.479.517.784.258.303.515.606.515.777 0 .3-.696.978-1.117 1.386l-.154.15c-.096.096-.2.214-.308.337-.31.35-.651.738-.938.738-.202 0-.365.14-.522.275-.143.124-.281.242-.438.242a.032.032 0 01-.023-.01.036.036 0 01-.024.01c-.157 0-.294-.118-.438-.242-.157-.134-.32-.275-.522-.275-.287 0-.629-.388-.938-.738a7.354 7.354 0 00-.308-.336l-.154-.15c-.42-.41-1.117-1.086-1.117-1.387 0-.17.257-.474.515-.777.259-.305.518-.61.518-.784z"/><path fill="#46A000" d="M7.01 10.673c.04.463.172.736.172.736s.231.364.363.368c.067.168.14.34.22.514.36.96.85 2.222 1.353 3.371a.806.806 0 00-.142-.081c-.421-.197-.723-.22-.723-.22s-.564.025-.506.185c.059.16.758.507 1.042.404l.095-.034c.13-.045.25-.086.284-.14l.201.447c-.42-.196-.72-.219-.72-.219s-.565.024-.506.184c.058.16.757.508 1.04.404l.096-.033c.079-.027.154-.053.208-.081.507 1.08.996 1.943 1.345 2.16h.705s-.61-.86-1.377-2.065c.232-.164.554-.526.554-.754l.001-.101c.005-.266.008-.493-.284-.201-.329.328-.453.604-.453.604s-.015.047-.032.114a54.07 54.07 0 01-.186-.3c.231-.163.559-.53.559-.759v-.101c.005-.266.009-.492-.283-.201-.329.328-.453.604-.453.604s-.015.048-.032.116a47.68 47.68 0 01-.268-.445c.227-.12.64-.55.64-.808l.001-.101c.005-.266.009-.493-.283-.201-.33.328-.454.604-.454.604s-.037.117-.059.243a40.14 40.14 0 01-.347-.605h.011c.17 0 .736-.538.736-.84l.001-.1c.005-.267.008-.493-.284-.202a2.295 2.295 0 00-.453.604s-.084.265-.075.423c-.157-.283-.31-.567-.456-.849h.004c.17 0 .736-.538.736-.84l.001-.1c.005-.267.008-.493-.284-.202-.328.328-.453.604-.453.604s-.075.239-.076.398a20.43 20.43 0 01-.425-.886c-.07-.185-.134-.359-.193-.519a.062.062 0 00.023-.018c.11-.13.06-.909-.17-1.103a5.56 5.56 0 01-.077-.066c-.201-.174-.372-.323-.337.088zm.782 1.184s.023-.302.22-.723c.174-.374.248-.16.335.092.01.031.022.064.034.095.103.284-.245.983-.405 1.041-.16.059-.184-.505-.184-.505zm.788 2.889c-.42-.197-.722-.22-.722-.22s-.564.024-.506.184c.058.16.757.508 1.041.404l.096-.033c.251-.087.465-.16.091-.335zm-1.118-1.12s.302.023.723.22c.374.175.16.249-.092.335l-.095.034c-.284.103-.983-.244-1.041-.404-.058-.16.505-.184.505-.184zm.394-.68c-.421-.196-.723-.219-.723-.219s-.564.024-.506.184c.059.16.758.508 1.042.404l.095-.033c.251-.087.465-.16.092-.336zm-.881-1.301s.276.124.604.453c.292.292.065.288-.2.284l-.102-.001c-.302 0-.84-.566-.84-.736 0-.17.538 0 .538 0z"/><path fill="#0093E1" d="M28.692 10.339h-2.138s.454 0 .503.437c0 0 .01 3.694 0 3.984-.01.29-.503.39-.503.39s2.593.007 2.138 0a.564.564 0 01-.556-.39v-3.984c0-.337.556-.437.556-.437zM4.565 14.853a6000.93 6000.93 0 00-1.735-4.449h1.478c-.256 0-.352.327-.352.327l1.036 2.953s1.002-2.41 1.002-2.838c0-.428-.42-.442-.42-.442H7.5l-.466.156s-1.542 3.536-1.542 4.293c-.074.168.71.28.71.28h-2.07l.432-.28zm17.702-1.396l1.145-2.111.034 2.348-.355-.115-.252 1.569 1.267-2.43-.422-.159 1.569-1.697-.534 2.294-.304-.267-1.797 3.352 2.006-2.298-.387-.193 1.98-1.296-.862 2.112-.48-.346-2.036 2.562-.844-.325.844-3h-.572zm-.662 4.003h-.634v.482h-.498L19.06 19.58h.78l.27.923.363-.326v.326l.708-.326.677.586.505-2.253-.34-.25.175-.152-.175-.648h-.418z"/><path fill="#F7FCFF" d="M12.344 8.013s.93.642 1.86.642c.931 0 1.862-.642 1.862-.642s.93.642 1.861.642c.93 0 1.861-.642 1.861-.642v2.9c0 3-3.722 5.325-3.722 5.325s-3.903-2.135-3.722-5.36V8.013z"/><g mask="url(#VI_svg__VI_-_Virgin_Islands_(U_S_)"><path fill="#2E42A5" d="M12.08 7.82h7.84v3.02h-7.84V7.82z"/><path fill="#AF0100" d="M13.595 10.84h-.659v6.105h.66V10.84zm1.12 0h-.659v6.105h.66V10.84zm.462 0h.658v6.105h-.659V10.84zm1.778 0h-.658v6.105h.658V10.84zm.462 0h.658v6.105h-.659V10.84zm1.778 0h-.659v6.105h.66V10.84z"/></g></g></g></svg>
